app/dist/common/images/zhejiang-supcon-technology.svg

<svg height="18" viewBox="0 0 18 18" width="18" xmlns="http://www.w3.org/2000/svg"><path d="m0 0h18v18h-18z" fill="#f0f3fa"/><path d="m13 7v-1h-6.46c-.74 0-1.54.84-1.54 1.5v.5c0 .66.6 1.5 1.33 1.5h4.67c.5 0 1 .1 1 .7s-.5.8-1 .8h-6v1h6.5c1 0 1.5-.84 1.5-1.5v-.5c0-.66-.5-1.5-1.5-1.5h-4.5c-.37 0-1-.06-1-.7s.63-.8 1-.8z" fill="#013c9c"/></svg>

<!-- by TradingView --><svg width="18" height="18" viewBox="0 0 18 18" xmlns="http://www.w3.org/2000/svg"><path fill="#F0F3FA" d="M0 0h18v18H0z"/><path d="M13 7V6H6.54C5.8 6 5 6.84 5 7.5V8c0 .66.6 1.5 1.33 1.5H11c.5 0 1 .1 1 .7s-.5.8-1 .8H5v1h6.5c1 0 1.5-.84 1.5-1.5V10c0-.66-.5-1.5-1.5-1.5H7c-.37 0-1-.06-1-.7 0-.64.63-.8 1-.8h6Z" fill="#013C9C"/></svg>
